dist/svg/u1F590_u1F3FF.svg

<?xml version="1.0" encoding="UTF-8"?><svg id="Layer_1" xmlns="http://www.w3.org/2000/svg" viewBox="0 0 40 40"><g><rect width="40" height="40" style="fill:none;"/><path d="M37.47913,19.97034c-1.16956-1.16956-3.06586-1.16956-4.23547,0l-3.89471,2.77155v-4.0553l.40308-11.54181,.00031-.00244c.05029-1.44037-1.05115-2.64789-2.46021-2.69708-1.40906-.04919-2.59204,1.07855-2.64233,2.51886v.00006h-.00031l-.3468,9.9314-1.29163-.00006-.40143-11.49481c-.05029-1.44037-1.23328-2.56812-2.64233-2.51892-1.40906,.04926-2.5105,1.25671-2.46021,2.69708l.39746,11.383-1.11932,.29041-1.71588-9.73126c-.24524-1.39093-1.56964-2.31995-2.95813-2.07513-1.38849,.24481-2.31525,1.5708-2.07001,2.96173l1.78638,10.13098-1.37042,.35559-1.77911-7.13562-.00006-.00061c-.34979-1.40283-1.74231-2.26349-3.11029-1.92242-1.36804,.34106-2.19348,1.75476-1.84375,3.15759h-.00006l3.34637,13.42139,.02386-.00922c.84613,6.05206,6.0293,10.71448,12.31451,10.71448,3.43811,0,6.55066-1.39374,8.80359-3.64697l9.26691-9.26691c1.16962-1.16962,1.16962-3.06592,0-4.23553Z" style="fill:#6e4944;"/></g><path d="M27.766,23.52967h-2.7024c-2.20914,0-4,1.79086-4,4v1.11382c1.7574-2.22329,4.05295-4.00041,6.7024-5.11382Z" style="fill:#2e2423;"/></svg>

<svg id="Layer_1" data-name="Layer 1" xmlns="http://www.w3.org/2000/svg" viewBox="0 0 40 40"><defs><style>.cls-1{fill:none;}.cls-2{fill:#6e4944;}.cls-3{fill:#2e2423;}</style></defs><rect class="cls-1" width="40" height="40"/><path class="cls-2" d="M37.479,19.97a3,3,0,0,0-4.235,0l-3.895,2.772V18.687l.4-11.542v0a2.553,2.553,0,1,0-5.1-.178h0L24.3,16.9H23.011L22.61,5.4a2.554,2.554,0,1,0-5.1.178l.4,11.383-1.12.29L15.069,7.521a2.553,2.553,0,1,0-5.028.887l1.787,10.131-1.371.355L8.678,11.759h0a2.585,2.585,0,0,0-3.11-1.922,2.585,2.585,0,0,0-1.844,3.157h0L7.07,26.414l.024-.009a12.439,12.439,0,0,0,21.118,7.068l9.267-9.267A3,3,0,0,0,37.479,19.97Z"/><path class="cls-3" d="M27.766,23.53h-2.7a4,4,0,0,0-4,4v1.113A16.906,16.906,0,0,1,27.766,23.53Z"/></svg>
